packages/ui-solid/icons/delete_28.svg

<svg width="28" height="28" viewBox="0 0 28 28" fill="none" xmlns="http://www.w3.org/2000/svg">
<path fill-rule="evenodd" clip-rule="evenodd" d="M13.7087 2.55899H14.2844C14.4275 2.55898 14.5324 2.55897 14.6261 2.56372C16.3301 2.65019 17.7252 3.88929 18.049 5.51869H22.4943C22.9913 5.51869 23.3943 5.92164 23.3943 6.41869C23.3943 6.91575 22.9913 7.31869 22.4943 7.31869H5.49887C5.00181 7.31869 4.59887 6.91575 4.59887 6.41869C4.59887 5.92164 5.00181 5.51869 5.49887 5.51869H9.94417C10.2679 3.88929 11.663 2.65019 13.367 2.56372C13.4608 2.55897 13.5657 2.55898 13.7087 2.55899ZM11.8165 5.51869H16.1767C15.9056 4.8655 15.2777 4.3991 14.5349 4.36141C14.493 4.35929 14.4378 4.35899 14.2601 4.35899H13.733C13.5553 4.35899 13.5001 4.35929 13.4583 4.36141C12.7154 4.3991 12.0875 4.8655 11.8165 5.51869ZM6.69954 9.68711C7.19309 9.6282 7.64095 9.98055 7.69986 10.4741L8.73771 19.1688C8.87976 20.3588 8.97787 21.1663 9.12898 21.7685C9.27386 22.3459 9.44138 22.6185 9.64897 22.8028C9.85656 22.9871 10.147 23.1211 10.7376 23.1965C11.3534 23.2752 12.1668 23.2769 13.3653 23.2769H14.6278C15.8263 23.2769 16.6398 23.2752 17.2556 23.1965C17.8461 23.1211 18.1366 22.9871 18.3442 22.8028C18.5518 22.6185 18.7193 22.3459 18.8642 21.7685C19.0153 21.1663 19.1134 20.3588 19.2554 19.1688L20.2933 10.4741C20.3522 9.98055 20.8001 9.6282 21.2936 9.68711C21.7872 9.74603 22.1395 10.1939 22.0806 10.6874L21.0357 19.441C20.9025 20.5573 20.7924 21.4798 20.6101 22.2066C20.4183 22.9709 20.1213 23.6321 19.5392 24.1489C18.957 24.6657 18.2653 24.8822 17.4837 24.982C16.7404 25.0769 15.8113 25.0769 14.6871 25.0769H13.3061C12.1818 25.0769 11.2528 25.0769 10.5095 24.982C9.72785 24.8822 9.03612 24.6657 8.45398 24.1489C7.87184 23.6321 7.57488 22.9709 7.3831 22.2066C7.20073 21.4798 7.09064 20.5573 6.95742 19.4409L5.91255 10.6874C5.85364 10.1939 6.20598 9.74603 6.69954 9.68711Z" fill="#007AFF"/>
</svg>

<svg xmlns="http://www.w3.org/2000/svg" width="28" height="28" fill="none"><path fill="currentColor" fill-rule="evenodd" d="M13.709 2.559h.575c.143 0 .248 0 .342.005a3.68 3.68 0 0 1 3.423 2.955h4.445a.9.9 0 0 1 0 1.8H5.5a.9.9 0 1 1 0-1.8h4.445a3.68 3.68 0 0 1 3.423-2.955c.094-.005.199-.005.342-.005m-1.892 2.96h4.36a1.88 1.88 0 0 0-1.642-1.158 7 7 0 0 0-.275-.002h-.527c-.178 0-.233 0-.275.002a1.88 1.88 0 0 0-1.642 1.158M6.7 9.687a.9.9 0 0 1 1 .787l1.038 8.695c.142 1.19.24 1.997.391 2.6.145.577.312.85.52 1.034s.498.318 1.089.393c.615.08 1.429.08 2.627.08h1.263c1.198 0 2.012 0 2.628-.08.59-.075.88-.209 1.088-.393s.375-.457.52-1.035c.151-.602.25-1.41.391-2.6l1.038-8.694a.9.9 0 0 1 1.788.213l-1.045 8.754c-.134 1.116-.244 2.039-.426 2.766-.192.764-.489 1.425-1.07 1.942-.583.517-1.275.733-2.056.833-.744.095-1.673.095-2.797.095h-1.38c-1.125 0-2.054 0-2.798-.095-.781-.1-1.473-.316-2.055-.833s-.88-1.178-1.07-1.942c-.183-.727-.293-1.65-.427-2.766l-1.044-8.754a.9.9 0 0 1 .787-1" clip-rule="evenodd"/></svg>
